X:1
T:Mazurka a Rigal
A:France 
F:http://simonwascher.info/
Z:abc transcription Simon Wascher
M:3/4
L:1/8
K:G dorian
DGB |\
d2^cded | B3ded | A2ABcA | B2A2GB |
d2^cded | B3ded | A2AcAB | G3 :|
|: DGA |\
BABcAB | G3AGF | EDABcA | B2A2GA |
BABcAB | G3AGF | EDAcAB | G3 :|
%%wordsfont Times-Italic 11pt
W:aus Simon Waschers TradArchiv
